X: 149
T:William Thompson's Bugle Solo. JaW.149
M:2/4
Q:80
S:James Winder Ms, Lancashire, 1835-41
R:Air
O:England
H:1/8
Z:vmp.Chris Partington, Aug 2004
K:C
G2|c2e2 g2G2|c2cc c2de|f2df fedc|BcdB G2G2|!
c2e2 g2G2|c2cc c2eg|gfdf feGB|c2cc c2:|!
|:e2|fefg afed|edef gedc|dcde fedc|B2GG G2G2|!
c2e2 g2G2|c2cc c2eg|gfdf fegb|c'2c'c' c'2:|]
